assets/svg/clock.svg

<svg width="70" height="70" viewBox="0 0 70 70" fill="none" xmlns="http://www.w3.org/2000/svg">
<path d="M35 0C15.67 0 0 15.67 0 35C0 54.33 15.67 70 35 70C54.33 70 70 54.33 70 35C69.9781 15.6791 54.3209 0.0218599 35 0ZM35 67.6667C16.9587 67.6667 2.33333 53.0413 2.33333 35C2.33333 16.9587 16.9587 2.33333 35 2.33333C53.0413 2.33333 67.6667 16.9587 67.6667 35C67.6461 53.0328 53.0328 67.6461 35 67.6667Z" fill="#6ABF16"/>
<path d="M28 29.1667C28 28.5223 27.4777 28 26.8333 28H22.1667C21.5318 28.0223 21.0223 28.5318 21 29.1667V33.8333C21 34.4777 21.5223 35 22.1667 35C22.811 35 23.3333 34.4777 23.3333 33.8333V32.1907C25.044 33.647 27.0441 34.7238 29.2017 35.35C29.3728 38.4205 31.9082 40.825 34.9834 40.8334C38.0586 40.8417 40.607 38.451 40.7948 35.3815C44.786 34.398 49.4282 32.3097 52.157 27.9405L52.535 29.4513C52.6655 29.97 53.1319 30.3335 53.6667 30.3333C53.7626 30.3337 53.8583 30.322 53.9513 30.2983C54.5763 30.1417 54.9561 29.5082 54.7995 28.8832L53.6328 24.2165C53.4697 23.5964 52.8414 23.2199 52.2177 23.3683L47.551 24.535C47.144 24.6339 46.8213 24.9433 46.7054 25.3457C46.5894 25.7481 46.6981 26.1818 46.99 26.4821C47.282 26.7823 47.7125 26.903 48.118 26.7983L50.4805 26.208C48.2452 30.1992 44.0918 32.1172 40.474 33.047C39.6604 30.7295 37.4755 29.1756 35.0194 29.1678C32.5632 29.1599 30.3684 30.6998 29.54 33.012C27.7749 32.4606 26.1437 31.5484 24.7497 30.3333H26.8333C27.4777 30.3333 28 29.811 28 29.1667ZM35 31.5C36.933 31.5 38.5 33.067 38.5 35C38.5 36.933 36.933 38.5 35 38.5C33.067 38.5 31.5 36.933 31.5 35C31.5 33.067 33.067 31.5 35 31.5Z" fill="#6ABF16"/>
<path d="M24.4137 46.2268C24.1724 45.6292 23.4923 45.3404 22.8947 45.5817C22.297 45.823 22.0082 46.5031 22.2495 47.1007C22.358 47.3667 24.9912 53.6667 35 53.6667C35.6443 53.6667 36.1667 53.1443 36.1667 52.5C36.1667 51.8557 35.6443 51.3333 35 51.3333C26.6607 51.3333 24.507 46.4497 24.4137 46.2268Z" fill="#6ABF16"/>
<path d="M32.6667 22.1667V17.5C32.6667 16.8557 32.1443 16.3333 31.5 16.3333C30.8557 16.3333 30.3333 16.8557 30.3333 17.5V22.1667C30.3333 22.811 30.8557 23.3333 31.5 23.3333C32.1443 23.3333 32.6667 22.811 32.6667 22.1667Z" fill="#6ABF16"/>
<path d="M39.6667 22.1667V17.5C39.6667 16.8557 39.1443 16.3333 38.5 16.3333C37.8557 16.3333 37.3333 16.8557 37.3333 17.5V22.1667C37.3333 22.811 37.8557 23.3333 38.5 23.3333C39.1443 23.3333 39.6667 22.811 39.6667 22.1667Z" fill="#6ABF16"/>
<path d="M60.2117 20.363C57.6582 15.9848 54.0152 12.3418 49.637 9.78833C49.6172 9.77433 49.6055 9.75333 49.5833 9.7405C49.5612 9.72766 49.5367 9.72883 49.5145 9.71717C40.5476 4.54545 29.5052 4.54012 20.5333 9.70317C20.4938 9.71333 20.4548 9.72579 20.4167 9.7405C20.3814 9.76789 20.3479 9.79751 20.3163 9.82917C19.236 10.4561 18.1967 11.1513 17.2048 11.9105C16.6952 12.3055 16.6022 13.0388 16.9972 13.5485C17.3921 14.0582 18.1255 14.1511 18.6352 13.7562C19.2698 13.2638 19.9185 12.8077 20.5928 12.3783L21.7397 14.3617C21.9466 14.7256 22.3327 14.9508 22.7513 14.9517C23.17 14.9526 23.557 14.7291 23.7655 14.3661C23.974 14.0031 23.9721 13.5562 23.7603 13.195L22.61 11.207C26.0829 9.38926 29.9165 8.36668 33.8333 8.21333V10.5C33.8333 11.1443 34.3557 11.6667 35 11.6667C35.6443 11.6667 36.1667 11.1443 36.1667 10.5V8.19583C40.0832 8.36209 43.9148 9.39108 47.3877 11.2093L46.2397 13.1985C46.0279 13.5597 46.026 14.0066 46.2345 14.3696C46.443 14.7326 46.83 14.9561 47.2487 14.9552C47.6674 14.9543 48.0534 14.7291 48.2603 14.3652L49.4072 12.3818C52.7076 14.4923 55.5101 17.2947 57.6205 20.5952L55.6372 21.742C55.2732 21.9489 55.0481 22.335 55.0471 22.7536C55.0462 23.1723 55.2697 23.5593 55.6327 23.7679C55.9957 23.9764 56.4427 23.9744 56.8038 23.7627L58.793 22.6147C60.6101 26.0871 61.6383 29.9177 61.8042 33.8333H59.5C58.8557 33.8333 58.3333 34.3557 58.3333 35C58.3333 35.6443 58.8557 36.1667 59.5 36.1667H61.8042C61.6379 40.0832 60.6089 43.9148 58.7907 47.3877L56.8015 46.2397C56.4403 46.0279 55.9934 46.026 55.6304 46.2345C55.2673 46.443 55.0439 46.83 55.0448 47.2487C55.0457 47.6673 55.2709 48.0534 55.6348 48.2603L57.6182 49.4072C55.5077 52.7076 52.7053 55.51 49.4048 57.6205L48.258 55.6372C48.0511 55.2732 47.665 55.0481 47.2464 55.0471C46.8277 55.0462 46.4407 55.2697 46.2321 55.6327C46.0236 55.9957 46.0256 56.4427 46.2373 56.8038L47.3853 58.793C43.9129 60.6101 40.0823 61.6383 36.1667 61.8042V59.5C36.1667 58.8557 35.6443 58.3333 35 58.3333C34.3557 58.3333 33.8333 58.8557 33.8333 59.5V61.8042C29.9168 61.6379 26.0852 60.6089 22.6123 58.7907L23.7603 56.8015C23.9721 56.4403 23.974 55.9934 23.7655 55.6304C23.557 55.2673 23.17 55.0439 22.7513 55.0448C22.3327 55.0457 21.9466 55.2709 21.7397 55.6348L20.5928 57.6182C17.2924 55.5077 14.49 52.7053 12.3795 49.4048L14.3628 48.258C14.7268 48.0511 14.9519 47.665 14.9529 47.2464C14.9538 46.8277 14.7303 46.4407 14.3673 46.2321C14.0043 46.0236 13.5573 46.0256 13.1962 46.2373L11.2128 47.3853C9.3937 43.9134 8.36351 40.0827 8.19583 36.1667H10.5C11.1443 36.1667 11.6667 35.6443 11.6667 35C11.6667 34.3557 11.1443 33.8333 10.5 33.8333H8.21683C8.39108 29.9216 9.41882 26.0954 11.228 22.6228L13.1985 23.7603C13.5597 23.9721 14.0066 23.974 14.3696 23.7655C14.7326 23.557 14.9561 23.17 14.9552 22.7513C14.9543 22.3327 14.7291 21.9466 14.3652 21.7397L12.3947 20.601C12.909 19.7805 13.4683 18.9891 14.07 18.2303C14.3309 17.9052 14.3986 17.4656 14.2475 17.0771C14.0964 16.6886 13.7495 16.4102 13.3375 16.3467C12.9255 16.2833 12.5109 16.4446 12.25 16.7697C11.3657 17.8826 10.5644 19.0591 9.8525 20.2895C9.81023 20.3287 9.77122 20.3712 9.73583 20.4167C9.71957 20.4575 9.70555 20.4992 9.69383 20.5415C4.53369 29.5117 4.5408 40.551 9.7125 49.5145C9.72417 49.5367 9.723 49.5612 9.73583 49.5833C9.74867 49.6055 9.78017 49.6382 9.8 49.6673C12.3534 54.0321 15.9902 57.664 20.3583 60.2117C20.3782 60.2257 20.3898 60.2467 20.412 60.2595C20.4342 60.2723 20.4797 60.2852 20.5135 60.3015C29.4803 65.455 40.5103 65.455 49.4772 60.3015C49.511 60.2852 49.546 60.2782 49.5787 60.2595C49.6113 60.2408 49.6125 60.2257 49.6323 60.2117C54.0005 57.664 57.6372 54.0321 60.1907 49.6673C60.2105 49.6382 60.2362 49.6148 60.2548 49.5833C60.2735 49.5518 60.2665 49.5367 60.2782 49.5145C65.4567 40.531 65.4567 29.469 60.2782 20.4855C60.2665 20.4633 60.2677 20.4388 60.2548 20.4167C60.242 20.3945 60.2257 20.3828 60.2117 20.363Z" fill="#6ABF16"/>
</svg>

<svg width="70" height="70" fill="none" xmlns="http://www.w3.org/2000/svg"><path d="M35 0C15.67 0 0 15.67 0 35s15.67 35 35 35 35-15.67 35-35C69.978 15.68 54.32.022 35 0zm0 67.667C16.959 67.667 2.333 53.04 2.333 35 2.333 16.959 16.96 2.333 35 2.333 53.041 2.333 67.667 16.96 67.667 35 67.647 53.033 53.033 67.646 35 67.667z" fill="#6ABF16"/><path d="M28 29.167c0-.645-.522-1.167-1.167-1.167h-4.666A1.21 1.21 0 0021 29.167v4.666a1.167 1.167 0 102.333 0v-1.642a15.882 15.882 0 005.869 3.159 5.806 5.806 0 0011.593.032c3.991-.984 8.633-3.072 11.362-7.441l.378 1.51a1.167 1.167 0 002.265-.568l-1.167-4.666a1.18 1.18 0 00-1.415-.849l-4.667 1.167a1.167 1.167 0 10.567 2.263l2.362-.59c-2.235 3.991-6.388 5.91-10.006 6.839a5.8 5.8 0 00-10.934-.035 13.347 13.347 0 01-4.79-2.679h2.083c.645 0 1.167-.522 1.167-1.166zm7 2.333a3.5 3.5 0 110 7 3.5 3.5 0 010-7zM24.414 46.227a1.167 1.167 0 00-2.165.874c.109.266 2.742 6.566 12.751 6.566a1.167 1.167 0 000-2.334c-8.34 0-10.493-4.883-10.586-5.106zM32.667 22.167V17.5a1.167 1.167 0 00-2.334 0v4.667a1.167 1.167 0 002.334 0zM39.667 22.167V17.5a1.167 1.167 0 00-2.334 0v4.667a1.167 1.167 0 002.334 0z" fill="#6ABF16"/><path d="M60.212 20.363A29.373 29.373 0 0049.637 9.788c-.02-.014-.032-.035-.054-.047-.022-.013-.046-.012-.069-.024a29.028 29.028 0 00-28.98-.014 1.05 1.05 0 00-.117.038 1.06 1.06 0 00-.1.088 29.391 29.391 0 00-3.112 2.082 1.168 1.168 0 001.43 1.845 25.7 25.7 0 011.958-1.378l1.147 1.984a1.167 1.167 0 102.02-1.167l-1.15-1.988a26.432 26.432 0 0111.223-2.994V10.5a1.167 1.167 0 002.334 0V8.196a26.627 26.627 0 0111.22 3.013L46.24 13.2a1.167 1.167 0 102.02 1.166l1.147-1.983a27.039 27.039 0 018.214 8.213l-1.984 1.147a1.167 1.167 0 101.167 2.02l1.989-1.147a26.627 26.627 0 013.011 11.218H59.5a1.167 1.167 0 000 2.334h2.304a26.628 26.628 0 01-3.013 11.22L56.8 46.24a1.167 1.167 0 10-1.166 2.02l1.983 1.147a27.04 27.04 0 01-8.213 8.214l-1.147-1.984a1.167 1.167 0 10-2.02 1.167l1.147 1.989a26.627 26.627 0 01-11.218 3.011V59.5a1.167 1.167 0 00-2.334 0v2.304a26.628 26.628 0 01-11.22-3.013l1.147-1.99a1.167 1.167 0 10-2.02-1.166l-1.147 1.983a27.04 27.04 0 01-8.213-8.213l1.983-1.147a1.167 1.167 0 10-1.167-2.02l-1.983 1.147a26.627 26.627 0 01-3.017-11.218H10.5a1.167 1.167 0 000-2.334H8.217a26.849 26.849 0 013.011-11.21l1.97 1.137a1.167 1.167 0 101.167-2.02l-1.97-1.139a26.276 26.276 0 011.675-2.37 1.167 1.167 0 10-1.82-1.461 29.017 29.017 0 00-2.398 3.52c-.042.039-.08.081-.116.127a1.21 1.21 0 00-.042.124 29.02 29.02 0 00.018 28.973c.012.023.011.047.024.07.013.021.044.054.064.083a29.383 29.383 0 0010.558 10.545c.02.014.032.035.054.047.022.013.068.026.102.042a29.063 29.063 0 0028.963 0c.034-.016.069-.023.102-.041.032-.02.033-.034.053-.048a29.383 29.383 0 0010.559-10.545c.02-.029.045-.052.064-.084.018-.031.011-.046.023-.069a29.063 29.063 0 000-29.029c-.011-.022-.01-.046-.023-.068-.013-.023-.03-.034-.043-.054z" fill="#6ABF16"/></svg>
